svg/fluentui-system-icons/ic_fluent_document_catch_up_24_regular.svg

<svg width="24" height="24" viewBox="0 0 24 24" fill="none" xmlns="http://www.w3.org/2000/svg">
<path d="M18 20.5C18.276 20.5 18.5 20.275 18.5 20V10H14C12.896 10 12 9.104 12 8V3.5H6C5.724 3.5 5.5 3.725 5.5 4V9.25C5.5 9.66421 5.16421 10 4.75 10C4.33579 10 4 9.66421 4 9.25V4C4 2.896 4.896 2 6 2H12.172C12.1999 2 12.2271 2.00371 12.2542 2.00741C12.2738 2.01008 12.2933 2.01274 12.313 2.014C12.528 2.029 12.74 2.07 12.937 2.152C12.9944 2.17648 13.0488 2.20797 13.103 2.23933C13.1197 2.24897 13.1363 2.25859 13.153 2.268C13.1685 2.27647 13.1845 2.28426 13.2005 2.29207C13.2281 2.30548 13.2557 2.31894 13.281 2.336C13.359 2.389 13.429 2.452 13.5 2.516C13.5115 2.5262 13.5238 2.53567 13.5363 2.54519C13.5531 2.55808 13.57 2.57105 13.585 2.586L19.414 8.414C19.789 8.789 20 9.298 20 9.828V20C20 21.104 19.104 22 18 22H6C4.896 22 4 21.104 4 20V16.25C4 15.8358 4.33579 15.5 4.75 15.5C5.16421 15.5 5.5 15.8358 5.5 16.25V20C5.5 20.275 5.724 20.5 6 20.5H18ZM17.378 8.5L13.5 4.621V8C13.5 8.275 13.724 8.5 14 8.5H17.378ZM2.75 13L5.25508 13L6.81175 9.4489C7.06044 8.88157 7.8355 8.85277 8.13885 9.35798L8.14458 9.36751L8.1949 9.4712L10.6081 15.4977L12.0348 13.3979C12.1462 13.1882 12.3493 13.0454 12.5802 13.0091L12.5909 13.0074L12.6971 12.9999H14.697C15.1112 12.9999 15.447 13.3357 15.447 13.7499C15.447 14.1255 15.1708 14.4369 14.8101 14.4915L14.7998 14.493L14.697 14.4999H13.1428L11.1641 17.5937C10.8889 18.12 10.1499 18.124 9.85818 17.6344L9.85261 17.6251L9.80375 17.524L7.46737 11.6894L6.4321 14.0511C6.33564 14.2712 6.14148 14.4284 5.9136 14.4809C5.89841 14.4844 5.88306 14.4874 5.86759 14.49L5.85645 14.4918L5.7452 14.5L2.75 14.5C2.33579 14.5 2 14.1642 2 13.75C2 13.3744 2.27619 13.063 2.63692 13.0085L2.64718 13.0069L2.75 13Z" fill="#212121"/>
</svg>

<svg xmlns="http://www.w3.org/2000/svg" width="24" height="24"><path d="M18 20.5a.5.5 0 0 0 .5-.5V10H14a2 2 0 0 1-2-2V3.5H6a.5.5 0 0 0-.5.5v5.25a.75.75 0 0 1-1.5 0V4a2 2 0 0 1 2-2h6.172c.028 0 .055.004.082.007a.63.63 0 0 0 .059.007c.215.015.427.056.624.138.057.024.112.056.166.087l.05.029.047.024a.652.652 0 0 1 .081.044c.078.053.148.116.219.18l.036.03a.493.493 0 0 1 .049.04l5.829 5.828A2 2 0 0 1 20 9.828V20a2 2 0 0 1-2 2H6a2 2 0 0 1-2-2v-3.75a.75.75 0 0 1 1.5 0V20a.5.5 0 0 0 .5.5h12Zm-.622-12L13.5 4.621V8a.5.5 0 0 0 .5.5h3.378ZM2.75 13h2.505l1.557-3.551a.75.75 0 0 1 1.327-.091l.006.01.05.103 2.413 6.027 1.427-2.1a.75.75 0 0 1 .545-.389l.01-.002.107-.007h2a.75.75 0 0 1 .113 1.492l-.01.001-.103.007h-1.554l-1.979 3.094a.75.75 0 0 1-1.306.04l-.005-.009-.05-.101-2.336-5.835-1.035 2.362a.75.75 0 0 1-.564.439l-.012.002-.11.008H2.75a.75.75 0 0 1-.113-1.492l.01-.001L2.75 13Z"/></svg>
